X:1
T:Alphabet
T:W.A. Mozart
T:Marc Giraud
T:Marc Giraud
Z:Marc Giraud
%%score 1 2 3
L:1/8
M:3/4
K:G
V:1 treble nm="Soprano" snm="S."
V:2 treble nm="Mezzosoprano" snm="Mzs."
V:3 treble nm="Alto" snm="A."
V:1
 G6 | A6 | B6 | c6 | d2 g2 e2 | dd g2 e2 | d2 c2 B2 | A4 z2 | dd d2 B2 | c2 A2 B2 | dd d2 B2 | %11
w: a|b|c|d|e f g|h i j k|l m n|o|l l l m|n o p|l l l m|
 c2 A2 B2 | B2 c2 d2 | e2 f2 g2 | fe dc BA | G4 z2 |: ((GF) GA BG) | ((AG) AB cA) | %18
w: n o p|q r s|t u v|dou- ble v x i grec|z|a * * * * *|b * * * * *|
 ((((BA))) Bc dB) | ((cB) cd ec) | d2 g2 e2 | dd g2 e2 | d2 c2 B2 | A4 z2 | dd d2 B2 | c2 A2 B2 | %26
w: c * * * * *|d * * * * *|e f g|h i j k|l m n|o|l l l m|n o p|
 dd d2 B2 | c2 A2 B2 | B2 c2 d2 | e2 f2 g2 | fe dc BA | G4 z2 :| %32
w: l l l m|n o p|q r s|t u v|dou- ble v x i grec|z|
V:2
 G6 | F6 | G6 | A6 | B2 e2 c2 | BB e2 c2 | B2 A2 G2 | F4 z2 | BB B2 G2 | A2 F2 G2 | BB B2 G2 | %11
w: a|b|c|d|e f g|h i j k|l m n|o|l l l m|n o p|l l l m|
 A2 F2 G2 | G2 A2 B2 | c2 d2 e2 | dc BA GF | G4 z2 |: z6 | z6 | (GF GA) (BG) | (AG AB) (cA) | %20
w: n o p|q r s|t u v|dou- ble v x i grec|z|||a * * * b *|c * * * d *|
 B2 e2 c2 | BB e2 c2 | B2 A2 G2 | F4 z2 | BB B2 G2 | A2 F2 G2 | BB B2 G2 | A2 F2 G2 | G2 A2 B2 | %29
w: e f g|h i j k|l m n|o|l l l m|n o p|l l l m|n o p|q r s|
 c2 d2 e2 | dc BA GF | G4 z2 :| %32
w: t u v|dou- ble v x i grec|z|
V:3
 G6 | D6 | G6 | G6 | G2 G2 G2 | GG G2 G2 | G2 C2 ^C2 | D4 z2 | GG B2 G2 | D2 D2 G2 | GG B2 G2 | %11
w: a|b|c|d|e f g|h i j k|l m n|o|l l l m|n o p|l l l m|
 D2 D2 G2 | G2 F2 =F2 | E2 D2 C2 | CC DD DD | G4 z2 |: z6 | z6 | z6 | z6 | GG GG GG | GG GG GG | %22
w: n o p|q r s|t u v|dou- ble v x i grec|z|||||a b c d e f|g h i j k l|
 G2 C2 ^C2 | D4 z2 | GG B2 G2 | D2 D2 G2 | GG B2 G2 | D2 D2 G2 | G2 F2 =F2 | E2 D2 C2 | CC DD DD | %31
w: l m n|o|l l l m|n o p|l l l m|n o p|q r s|t u v|dou- ble v x i grec|
 G4 z2 :| %32
w: z|

